svg/emoji_u1f507.svg

<?xml version="1.0" encoding="UTF-8"?>
<svg width="128" height="128" enable-background="new 0 0 128 128" xmlns="http://www.w3.org/2000/svg"><linearGradient id="e" x1="64" x2="64" y1="8.25" y2="120.13" gradientUnits="userSpaceOnUse"><stop stop-color="#616161" offset="0"/><stop stop-color="#515151" offset=".3054"/><stop stop-color="#292929" offset=".8963"/><stop stop-color="#212121" offset="1"/></linearGradient><circle cx="64" cy="64" r="56" fill="url(#e)"/><g opacity=".2"><path d="m64 17c25.92 0 47 21.08 47 47s-21.08 47-47 47-47-21.08-47-47 21.08-47 47-47m0-3c-27.61 0-50 22.39-50 50s22.39 50 50 50 50-22.39 50-50-22.39-50-50-50z" fill="#424242"/></g><g opacity=".2"><path d="m75.65 22.5c2.17 0 4.2 1.44 4.2 3.82v29.42c0.19-0.03 0.39-0.06 0.59-0.06 1.96 0 3.56 1.6 3.56 3.56v9.51c0 1.96-1.6 3.56-3.56 3.56-0.2 0-0.4-0.03-0.59-0.06v29.42c0 2.39-2.04 3.83-4.21 3.83-1.26 0-2.56-0.49-3.53-1.55-13.63-15.01-22.7-20.55-22.7-20.55h-11.06c-1.53 0-2.77-1.24-2.77-2.77v-33.26c0-1.53 1.24-2.77 2.77-2.77h11.07s9-5.48 22.69-20.54c0.97-1.07 2.28-1.56 3.54-1.56m0-3v3-3c-2.19 0-4.29 0.93-5.76 2.54-11.16 12.27-19.09 18.02-21.37 19.56h-10.17c-3.18 0-5.77 2.59-5.77 5.77v33.25c0 3.18 2.59 5.77 5.77 5.77h10.17c2.29 1.56 10.32 7.4 21.37 19.57 1.46 1.61 3.56 2.54 5.75 2.54 4.04 0 7.21-3 7.21-6.83v-26.82c2.43-0.96 4.15-3.33 4.15-6.1v-9.51c0-2.77-1.72-5.14-4.15-6.1v-26.82c0-3.82-3.16-6.82-7.2-6.82z" fill="#424242"/></g><radialGradient id="d" cx="80.657" cy="57.364" r="14.428" gradientTransform="matrix(1 0 0 1.0016 0 -.1007)" gradientUnits="userSpaceOnUse"><stop stop-color="#64B5F6" offset="0"/><stop stop-color="#5CB0F4" offset=".1808"/><stop stop-color="#47A2EF" offset=".4567"/><stop stop-color="#258CE7" offset=".7917"/><stop stop-color="#1E88E5" offset=".8495"/><stop stop-color="#1E88E5" offset="1"/></radialGradient><path d="m80.44 72.31c1.96 0 3.56-1.6 3.56-3.56v-9.51c0-1.96-1.6-3.56-3.56-3.56s-3.56 1.6-3.56 3.56v9.51c0.01 1.96 1.61 3.56 3.56 3.56z" fill="url(#d)"/><g opacity=".2"><path d="m80.44 57.68c0.86 0 1.56 0.7 1.56 1.56v9.51c0 0.86-0.7 1.56-1.56 1.56s-1.56-0.7-1.56-1.56v-9.51c0.01-0.86 0.7-1.56 1.56-1.56m0-2c-1.96 0-3.56 1.6-3.56 3.56v9.51c0 1.96 1.6 3.56 3.56 3.56s3.56-1.6 3.56-3.56v-9.51c0-1.95-1.6-3.56-3.56-3.56z" fill="#424242"/></g><radialGradient id="c" cx="46.074" cy="45.836" r="44.472" gradientTransform="matrix(1 0 0 1.0016 0 -.1007)" gradientUnits="userSpaceOnUse"><stop stop-color="#64B5F6" offset="0"/><stop stop-color="#5FB2F5" offset=".1869"/><stop stop-color="#51A9F1" offset=".4057"/><stop stop-color="#3A9AEC" offset=".6394"/><stop stop-color="#1E88E5" offset=".8495"/><stop stop-color="#1E88E5" offset="1"/></radialGradient><path d="M57.72,83.39H38.35c-1.53,0-2.77-1.24-2.77-2.77V47.37c0-1.53,1.24-2.77,2.77-2.77h19.37 V83.39z" fill="url(#c)"/><rect x="41.12" y="44.6" width="2.77" height="38.79" fill="#1E88E5"/><radialGradient id="b" cx="72.933" cy="25.72" r="72.661" gradientTransform="matrix(1 0 0 1.0016 0 -.1007)" gradientUnits="userSpaceOnUse"><stop stop-color="#BBDEFB" offset="0"/><stop stop-color="#B3DAFB" offset=".1183"/><stop stop-color="#9ED0FA" offset=".2989"/><stop stop-color="#7BC0F8" offset=".5193"/><stop stop-color="#4CAAF5" offset=".769"/><stop stop-color="#42A5F5" offset=".8153"/><stop stop-color="#2196F3" offset="1"/></radialGradient><path d="m72.11 24.06c-13.69 15.06-22.69 20.54-22.69 20.54v38.79s9.07 5.54 22.7 20.55c2.64 2.91 7.74 1.5 7.74-2.28v-75.35c-0.01-3.77-5.11-5.16-7.75-2.25z" fill="url(#b)"/><g opacity=".2"><path d="m75.65 24.5c0.76 0 2.2 0.38 2.2 1.82v75.35c0 1.34-1.32 1.83-2.21 1.83-0.46 0-1.34-0.12-2.05-0.9-13.66-15.05-22.75-20.68-23.13-20.91l-0.48-0.29h-11.63c-0.42 0-0.77-0.35-0.77-0.77v-33.26c0-0.43 0.34-0.77 0.77-0.77h11.63l0.48-0.29c0.38-0.23 9.41-5.81 23.13-20.9 0.71-0.79 1.6-0.91 2.06-0.91m0-2c-1.26 0-2.57 0.49-3.54 1.56-13.69 15.06-22.69 20.54-22.69 20.54h-11.07c-1.53 0-2.77 1.24-2.77 2.77v33.25c0 1.53 1.24 2.77 2.77 2.77h11.07s9.07 5.54 22.7 20.55c0.97 1.07 2.27 1.55 3.53 1.55 2.17 0 4.21-1.44 4.21-3.83v-75.35c-0.01-2.37-2.04-3.81-4.21-3.81z" fill="#424242"/></g><linearGradient id="a" x1="64" x2="64" y1="4" y2="124.13" gradientUnits="userSpaceOnUse"><stop stop-color="#FF5252" offset="0"/><stop stop-color="#F33B3B" offset=".324"/><stop stop-color="#D50000" offset="1"/></linearGradient><path d="M64,4C30.86,4,4,30.86,4,64s26.86,60,60,60s60-26.86,60-60S97.14,4,64,4z M114,64 c0,11.99-4.24,23-11.3,31.62L32.38,25.3C41,18.24,52.01,14,64,14C91.57,14,114,36.43,114,64z M14,64c0-11.99,4.24-23,11.3-31.62 l70.32,70.32C87,109.76,75.99,114,64,114C36.43,114,14,91.57,14,64z" fill="url(#a)"/><g opacity=".2"><path d="M64,7c31.43,0,57,25.57,57,57s-25.57,57-57,57S7,95.43,7,64S32.57,7,64,7 M64,4 C30.86,4,4,30.86,4,64s26.86,60,60,60s60-26.86,60-60S97.14,4,64,4L64,4z" fill="#424242"/></g></svg>

<svg width="128" height="128" style="enable-background:new 0 0 128 128;" xmlns="http://www.w3.org/2000/svg" xmlns:xlink="http://www.w3.org/1999/xlink">
  <linearGradient id="SVGID_1_" gradientUnits="userSpaceOnUse" x1="64" x2="64" y1="8.25" y2="120.1294">
    <stop offset="0" style="stop-color:#616161"/>
    <stop offset="0.3054" style="stop-color:#515151"/>
    <stop offset="0.8963" style="stop-color:#292929"/>
    <stop offset="1" style="stop-color:#212121"/>
  </linearGradient>
  <circle cx="64" cy="64" r="56" style="fill:url(#SVGID_1_);"/>
  <g style="opacity:0.2;">
    <path d="M64,17c25.92,0,47,21.08,47,47s-21.08,47-47,47S17,89.92,17,64S38.08,17,64,17 M64,14 c-27.61,0-50,22.39-50,50s22.39,50,50,50s50-22.39,50-50S91.61,14,64,14L64,14z" style="fill:#424242;"/>
  </g>
  <g style="opacity:0.2;">
    <path d="M75.65,22.5c2.17,0,4.2,1.44,4.2,3.82c0,7.38,0,18.08,0,29.42c0.19-0.03,0.39-0.06,0.59-0.06 c1.96,0,3.56,1.6,3.56,3.56v9.51c0,1.96-1.6,3.56-3.56,3.56c-0.2,0-0.4-0.03-0.59-0.06c0,11.35,0,22.05,0,29.42 c0,2.39-2.04,3.83-4.21,3.83c-1.26,0-2.56-0.49-3.53-1.55c-13.63-15.01-22.7-20.55-22.7-20.55H38.35c-1.53,0-2.77-1.24-2.77-2.77 V47.37c0-1.53,1.24-2.77,2.77-2.77h11.07c0,0,9-5.48,22.69-20.54C73.08,22.99,74.39,22.5,75.65,22.5 M75.65,19.5l0,3L75.65,19.5 c-2.19,0-4.29,0.93-5.76,2.54C58.73,34.31,50.8,40.06,48.52,41.6H38.35c-3.18,0-5.77,2.59-5.77,5.77v33.25 c0,3.18,2.59,5.77,5.77,5.77h10.17c2.29,1.56,10.32,7.4,21.37,19.57c1.46,1.61,3.56,2.54,5.75,2.54c4.04,0,7.21-3,7.21-6.83V74.85 c2.43-0.96,4.15-3.33,4.15-6.1v-9.51c0-2.77-1.72-5.14-4.15-6.1V26.32C82.85,22.5,79.69,19.5,75.65,19.5L75.65,19.5z" style="fill:#424242;"/>
  </g>
  <radialGradient id="SVGID_2_" cx="80.6569" cy="57.3642" gradientTransform="matrix(1 0 0 1.0016 0 -0.1007)" gradientUnits="userSpaceOnUse" r="14.4282">
    <stop offset="0" style="stop-color:#64B5F6"/>
    <stop offset="0.1808" style="stop-color:#5CB0F4"/>
    <stop offset="0.4567" style="stop-color:#47A2EF"/>
    <stop offset="0.7917" style="stop-color:#258CE7"/>
    <stop offset="0.8495" style="stop-color:#1E88E5"/>
    <stop offset="1" style="stop-color:#1E88E5"/>
  </radialGradient>
  <path d="M80.44,72.31L80.44,72.31c1.96,0,3.56-1.6,3.56-3.56v-9.51c0-1.96-1.6-3.56-3.56-3.56h0 c-1.96,0-3.56,1.6-3.56,3.56v9.51C76.89,70.71,78.49,72.31,80.44,72.31z" style="fill:url(#SVGID_2_);"/>
  <g style="opacity:0.2;">
    <path d="M80.44,57.68c0.86,0,1.56,0.7,1.56,1.56v9.51c0,0.86-0.7,1.56-1.56,1.56s-1.56-0.7-1.56-1.56v-9.51 C78.89,58.38,79.58,57.68,80.44,57.68 M80.44,55.68c-1.96,0-3.56,1.6-3.56,3.56v9.51c0,1.96,1.6,3.56,3.56,3.56S84,70.71,84,68.75 v-9.51C84,57.29,82.4,55.68,80.44,55.68L80.44,55.68z" style="fill:#424242;"/>
  </g>
  <radialGradient id="SVGID_3_" cx="46.0736" cy="45.8364" gradientTransform="matrix(1 0 0 1.0016 0 -0.1007)" gradientUnits="userSpaceOnUse" r="44.4717">
    <stop offset="0" style="stop-color:#64B5F6"/>
    <stop offset="0.1869" style="stop-color:#5FB2F5"/>
    <stop offset="0.4057" style="stop-color:#51A9F1"/>
    <stop offset="0.6394" style="stop-color:#3A9AEC"/>
    <stop offset="0.8495" style="stop-color:#1E88E5"/>
    <stop offset="1" style="stop-color:#1E88E5"/>
  </radialGradient>
  <path d="M57.72,83.39H38.35c-1.53,0-2.77-1.24-2.77-2.77V47.37c0-1.53,1.24-2.77,2.77-2.77h19.37 V83.39z" style="fill:url(#SVGID_3_);"/>
  <rect height="38.79" style="fill:#1E88E5;" width="2.77" x="41.12" y="44.6"/>
  <radialGradient id="SVGID_4_" cx="72.9333" cy="25.7204" gradientTransform="matrix(1 0 0 1.0016 0 -0.1007)" gradientUnits="userSpaceOnUse" r="72.6606">
    <stop offset="0" style="stop-color:#BBDEFB"/>
    <stop offset="0.1183" style="stop-color:#B3DAFB"/>
    <stop offset="0.2989" style="stop-color:#9ED0FA"/>
    <stop offset="0.5193" style="stop-color:#7BC0F8"/>
    <stop offset="0.769" style="stop-color:#4CAAF5"/>
    <stop offset="0.8153" style="stop-color:#42A5F5"/>
    <stop offset="1" style="stop-color:#2196F3"/>
  </radialGradient>
  <path d="M72.11,24.06C58.42,39.12,49.42,44.6,49.42,44.6v38.79c0,0,9.07,5.54,22.7,20.55 c2.64,2.91,7.74,1.5,7.74-2.28c0-18.27,0-57.03,0-75.35C79.85,22.54,74.75,21.15,72.11,24.06z" style="fill:url(#SVGID_4_);"/>
  <g style="opacity:0.2;">
    <path d="M75.65,24.5c0.76,0,2.2,0.38,2.2,1.82v75.35c0,1.34-1.32,1.83-2.21,1.83c-0.46,0-1.34-0.12-2.05-0.9 C59.93,87.55,50.84,81.92,50.46,81.69l-0.48-0.29h-0.56H38.35c-0.42,0-0.77-0.35-0.77-0.77V47.37c0-0.43,0.34-0.77,0.77-0.77h11.07 h0.56l0.48-0.29c0.38-0.23,9.41-5.81,23.13-20.9C74.3,24.62,75.19,24.5,75.65,24.5 M75.65,22.5c-1.26,0-2.57,0.49-3.54,1.56 C58.42,39.12,49.42,44.6,49.42,44.6H38.35c-1.53,0-2.77,1.24-2.77,2.77v33.25c0,1.53,1.24,2.77,2.77,2.77h11.07 c0,0,9.07,5.54,22.7,20.55c0.97,1.07,2.27,1.55,3.53,1.55c2.17,0,4.21-1.44,4.21-3.83c0-18.27,0-57.03,0-75.35 C79.85,23.94,77.82,22.5,75.65,22.5L75.65,22.5z" style="fill:#424242;"/>
  </g>
  <linearGradient id="SVGID_5_" gradientUnits="userSpaceOnUse" x1="64" x2="64" y1="4" y2="124.1303">
    <stop offset="0" style="stop-color:#FF5252"/>
    <stop offset="0.324" style="stop-color:#F33B3B"/>
    <stop offset="1" style="stop-color:#D50000"/>
  </linearGradient>
  <path d="M64,4C30.86,4,4,30.86,4,64s26.86,60,60,60s60-26.86,60-60S97.14,4,64,4z M114,64 c0,11.99-4.24,23-11.3,31.62L32.38,25.3C41,18.24,52.01,14,64,14C91.57,14,114,36.43,114,64z M14,64c0-11.99,4.24-23,11.3-31.62 l70.32,70.32C87,109.76,75.99,114,64,114C36.43,114,14,91.57,14,64z" style="fill:url(#SVGID_5_);"/>
  <g style="opacity:0.2;">
    <path d="M64,7c31.43,0,57,25.57,57,57s-25.57,57-57,57S7,95.43,7,64S32.57,7,64,7 M64,4 C30.86,4,4,30.86,4,64s26.86,60,60,60s60-26.86,60-60S97.14,4,64,4L64,4z" style="fill:#424242;"/>
  </g>
</svg>
